src/views/components/like/images/unlike-button.svg

<svg width="40" height="20" viewBox="0 0 40 20" fill="none" xmlns="http://www.w3.org/2000/svg">
<rect width="40" height="20" rx="10" fill="white"/>
<rect x="0.5" y="0.5" width="39" height="19" rx="9.5" stroke="#1F2041" stroke-opacity="0.25"/>
<path d="M10.0391 12.7344C10.6641 12.1745 11.1263 11.7513 11.4258 11.4648C11.7253 11.1784 12.0508 10.8398 12.4023 10.4492C12.7539 10.0586 12.9948 9.71354 13.125 9.41406C13.2682 9.11458 13.3398 8.82161 13.3398 8.53516C13.3398 8.11849 13.1966 7.77344 12.9102 7.5C12.6367 7.22656 12.2917 7.08984 11.875 7.08984C11.5495 7.08984 11.2435 7.18099 10.957 7.36328C10.6836 7.54557 10.4948 7.77995 10.3906 8.06641H9.60938C9.50521 7.77995 9.3099 7.54557 9.02344 7.36328C8.75 7.18099 8.45052 7.08984 8.125 7.08984C7.70833 7.08984 7.35677 7.22656 7.07031 7.5C6.79688 7.77344 6.66016 8.11849 6.66016 8.53516C6.66016 8.82161 6.72526 9.11458 6.85547 9.41406C6.9987 9.71354 7.24609 10.0586 7.59766 10.4492C7.94922 10.8398 8.27474 11.1784 8.57422 11.4648C8.8737 11.7513 9.33594 12.1745 9.96094 12.7344L10 12.7734L10.0391 12.7344ZM11.875 6.25C12.526 6.25 13.0664 6.47135 13.4961 6.91406C13.9388 7.35677 14.1602 7.89714 14.1602 8.53516C14.1602 8.91276 14.0885 9.28385 13.9453 9.64844C13.8021 10 13.5352 10.3971 13.1445 10.8398C12.7669 11.2826 12.4219 11.6536 12.1094 11.9531C11.7969 12.2526 11.2956 12.7148 10.6055 13.3398L10 13.8867L9.39453 13.3594C8.49609 12.5521 7.84505 11.9466 7.44141 11.543C7.05078 11.1393 6.6862 10.6641 6.34766 10.1172C6.00911 9.57031 5.83984 9.04297 5.83984 8.53516C5.83984 7.89714 6.05469 7.35677 6.48438 6.91406C6.92708 6.47135 7.47396 6.25 8.125 6.25C8.88021 6.25 9.50521 6.54297 10 7.12891C10.4948 6.54297 11.1198 6.25 11.875 6.25Z" fill="#1F2041" fill-opacity="0.25"/>
</svg>

<svg width="40" height="20" fill="none" xmlns="http://www.w3.org/2000/svg"><rect width="40" height="20" rx="10" fill="#fff"/><rect x=".5" y=".5" width="39" height="19" rx="9.5" stroke="#1F2041" stroke-opacity=".25"/><path d="M10.04 12.734c.624-.56 1.086-.983 1.386-1.27.3-.286.625-.624.976-1.015.352-.39.593-.735.723-1.035.143-.3.215-.592.215-.879a1.37 1.37 0 0 0-.43-1.035c-.273-.273-.618-.41-1.035-.41a1.68 1.68 0 0 0-.918.273 1.415 1.415 0 0 0-.566.703h-.782c-.104-.286-.3-.52-.586-.703a1.586 1.586 0 0 0-.898-.273 1.47 1.47 0 0 0-1.055.41c-.273.273-.41.618-.41 1.035 0 .287.065.58.195.88.144.299.391.644.743 1.034.351.39.677.73.976 1.016.3.286.762.71 1.387 1.27l.039.038.04-.039Zm1.835-6.484c.651 0 1.191.221 1.621.664.443.443.664.983.664 1.621 0 .378-.072.749-.215 1.113-.143.352-.41.75-.8 1.192-.378.443-.723.814-1.036 1.113-.312.3-.813.762-1.504 1.387l-.605.547-.605-.528a55.519 55.519 0 0 1-1.954-1.816 8.392 8.392 0 0 1-1.093-1.426c-.339-.547-.508-1.074-.508-1.582 0-.638.215-1.178.644-1.62.443-.444.99-.665 1.641-.665.755 0 1.38.293 1.875.879.495-.586 1.12-.879 1.875-.879Z" fill="#1F2041" fill-opacity=".25"/></svg>
